SVG_Azure_Grouped/Generic/Resource Explorer.svg

<?xml version="1.0" encoding="UTF-8" standalone="no"?>
<!-- Generated by Microsoft Visio, SVG Export Resource Explorer.svg Page-1 -->

<svg
   xmlns:dc="http://purl.org/dc/elements/1.1/"
   xmlns:cc="http://creativecommons.org/ns#"
   xmlns:rdf="http://www.w3.org/1999/02/22-rdf-syntax-ns#"
   xmlns:svg="http://www.w3.org/2000/svg"
   xmlns="http://www.w3.org/2000/svg"
   xmlns:sodipodi="http://sodipodi.sourceforge.net/DTD/sodipodi-0.dtd"
   xmlns:inkscape="http://www.inkscape.org/namespaces/inkscape"
   width="0.78735948in"
   height="0.70763743in"
   viewBox="0 0 56.689717 50.950001"
   xml:space="preserve"
   class="st6"
   version="1.1"
   id="svg39"
   sodipodi:docname="Resource Explorer.svg"
   style="font-size:12px;overflow:visible;color-interpolation-filters:sRGB;fill:none;fill-rule:evenodd;stroke-linecap:square;stroke-miterlimit:3"
   inkscape:version="0.92.5 (2060ec1f9f, 2020-04-08)"><metadata
   id="metadata45"><rdf:RDF><cc:Work
       rdf:about=""><dc:format>image/svg+xml</dc:format><dc:type
         rdf:resource="http://purl.org/dc/dcmitype/StillImage" /></cc:Work></rdf:RDF></metadata><defs
   id="defs43" /><sodipodi:namedview
   pagecolor="#ffffff"
   bordercolor="#666666"
   borderopacity="1"
   objecttolerance="10"
   gridtolerance="10"
   guidetolerance="10"
   inkscape:pageopacity="0"
   inkscape:pageshadow="2"
   inkscape:window-width="640"
   inkscape:window-height="480"
   id="namedview41"
   showgrid="false"
   inkscape:zoom="1.8195051"
   inkscape:cx="37.794455"
   inkscape:cy="19.397901"
   inkscape:window-x="0"
   inkscape:window-y="0"
   inkscape:window-maximized="0"
   inkscape:current-layer="svg39" />
	<style
   type="text/css"
   id="style2">
	<![CDATA[
		.st1 {fill:#fee087;stroke:none;stroke-linecap:butt;stroke-width:12.24}
		.st2 {fill:#dd5900;stroke:none;stroke-linecap:butt;stroke-width:12.24}
		.st3 {fill:#ff8c00;stroke:none;stroke-linecap:butt;stroke-width:12.24}
		.st4 {fill:#ff8c00;fill-opacity:0.5;stroke:none;stroke-linecap:butt;stroke-width:12.24}
		.st5 {fill:#1e1e1e;fill-opacity:0.2;stroke:none;stroke-linecap:butt;stroke-width:12.24}
		.st6 {fill:none;fill-rule:evenodd;font-size:12px;overflow:visible;stroke-linecap:square;stroke-miterlimit:3}
	]]>
	</style>

	<g
   id="g37"
   transform="translate(-12.241303,-12.238156)">
		<title
   id="title4">Page-1</title>
		<g
   id="group16530-1"
   transform="translate(12.2411,-34.0157)">
			<title
   id="title6">Resource Explorer.16530</title>
			<g
   id="group16531-2">
				<title
   id="title8">Sheet.16531</title>
				<g
   id="shape16532-3"
   transform="translate(0,-0.0761442)">
					<title
   id="title10">Sheet.16532</title>
					<path
   d="m 54.5,57.29 v -4.4 H 24.83 L 18.1,46.33 H 0 v 48.33 c 0,1.45 1.2,2.62 2.69,2.62 H 54 a 2.68957,2.62256 -180 0 0 2.69,-2.62 V 57.29 Z"
   class="st1"
   id="path12"
   inkscape:connector-curvature="0"
   style="fill:#fee087;stroke:none;stroke-width:12.23999977;stroke-linecap:butt" />
				</g>
				<g
   id="shape16533-5"
   transform="translate(17.7944,-22.338)">
					<title
   id="title15">Sheet.16533</title>
					<path
   d="M 11.89,97.28 A 0.362842,0.353802 0 0 1 11.714248,97.23135 L 0.17,90.74 a 0.350369,0.34164 0 0 1 0,-0.589301 L 11.64,83.7 a 0.356039,0.347168 0 0 1 0.346968,0 L 23.53,90.19 A 0.345834,0.337217 0 0 1 23.70235,90.482992 0.348101,0.339429 0 0 1 23.53,90.778195 L 12.06,97.23 a 0.343566,0.335006 0 0 1 -0.175752,0.04865 z"
   class="st2"
   id="path17"
   inkscape:connector-curvature="0"
   style="fill:#dd5900;stroke:none;stroke-width:12.23999977;stroke-linecap:butt" />
				</g>
				<g
   id="shape16534-7"
   transform="translate(16.168,-6.55404)">
					<title
   id="title20">Sheet.16534</title>
					<path
   d="M 11.85,97.28 A 0.331093,0.322844 0 0 1 11.674248,97.23467 L 0.18,90.76 A 0.342432,0.333901 0 0 1 0.003115,90.464797 L 0,77.48 a 0.351503,0.342746 0 0 1 0.176885,-0.297415 0.36511,0.356013 0 0 1 0.351503,0 L 12.03,83.65 a 0.362842,0.353802 0 0 1 0.170082,0.296309 L 12.2,96.94 c 0,0.12 -0.07,0.23 -0.17,0.29 a 0.360574,0.351591 0 0 1 -0.174618,0.04533 z"
   class="st3"
   id="path22"
   inkscape:connector-curvature="0"
   style="fill:#ff8c00;stroke:none;stroke-width:12.23999977;stroke-linecap:butt" />
				</g>
				<g
   id="shape16535-9"
   transform="translate(30.9277,-6.55404)">
					<title
   id="title25">Sheet.16535</title>
					<path
   d="M 0.35,97.28 A 0.357172,0.348274 0 0 1 0.171981,97.234669 0.350369,0.34164 0 0 1 -3.69e-4,96.939466 L 0,84.03 C 0,83.91 0.07,83.8 0.17,83.74 l 11.5,-6.48 a 0.351503,0.342746 0 0 1 0.523853,0.294098 L 12.19,90.47 a 0.346968,0.338323 0 0 1 -0.176885,0.295203 L 0.52,97.23 a 0.311817,0.304049 0 0 1 -0.170082,0.04533 z"
   class="st4"
   id="path27"
   inkscape:connector-curvature="0"
   style="fill:#ff8c00;fill-opacity:0.5;stroke:none;stroke-width:12.23999977;stroke-linecap:butt" />
				</g>
				<g
   id="shape16536-11">
					<title
   id="title30">Sheet.16536</title>
					<path
   d="M 5.38,57.21 V 94.58 A 2.69,2.6229793 0 1 1 0,94.58 V 46.26 h 18.1 l 6.73,6.56 H 54.5 v 4.39 z"
   class="st5"
   id="path32"
   inkscape:connector-curvature="0"
   style="fill:#1e1e1e;fill-opacity:0.2;stroke:none;stroke-width:12.23999977;stroke-linecap:butt" />
				</g>
			</g>
		</g>
	</g>
</svg>

<?xml version="1.0" encoding="UTF-8" standalone="no"?>
<!DOCTYPE svg PUBLIC "-//W3C//DTD SVG 1.1//EN" "http://www.w3.org/Graphics/SVG/1.1/DTD/svg11.dtd">
<!-- Generated by Microsoft Visio, SVG Export Resource Explorer.svg Page-1 -->
<svg xmlns="http://www.w3.org/2000/svg" xmlns:xlink="http://www.w3.org/1999/xlink" xmlns:ev="http://www.w3.org/2001/xml-events"
		width="1.12742in" height="1.3511in" viewBox="0 0 81.174 97.2794" xml:space="preserve" color-interpolation-filters="sRGB"
		class="st6">
	<style type="text/css">
	<![CDATA[
		.st1 {fill:#fee087;stroke:none;stroke-linecap:butt;stroke-width:12.24}
		.st2 {fill:#dd5900;stroke:none;stroke-linecap:butt;stroke-width:12.24}
		.st3 {fill:#ff8c00;stroke:none;stroke-linecap:butt;stroke-width:12.24}
		.st4 {fill:#ff8c00;fill-opacity:0.5;stroke:none;stroke-linecap:butt;stroke-width:12.24}
		.st5 {fill:#1e1e1e;fill-opacity:0.2;stroke:none;stroke-linecap:butt;stroke-width:12.24}
		.st6 {fill:none;fill-rule:evenodd;font-size:12px;overflow:visible;stroke-linecap:square;stroke-miterlimit:3}
	]]>
	</style>

	<g>
		<title>Page-1</title>
		<g id="group16147-1" transform="translate(12.2411,-34.0157)">
			<title>Resource Explorer.16147</title>
			<g id="group16148-2">
				<title>Sheet.16148</title>
				<g id="shape16149-3" transform="translate(0,-0.0761442)">
					<title>Sheet.16149</title>
					<path d="M54.5 57.29 L54.5 52.89 L24.83 52.89 L18.1 46.33 L0 46.33 L0 94.66 C0 96.11 1.2 97.28 2.69 97.28 L54
								 97.28 A2.68957 2.62256 -180 0 0 56.69 94.66 L56.69 57.29 L54.5 57.29 Z" class="st1"/>
				</g>
				<g id="shape16150-5" transform="translate(17.7944,-22.338)">
					<title>Sheet.16150</title>
					<path d="M11.89 97.28 a0.362842 0.353802 0 0 1 -0.175752 -0.0486478 L0.17 90.74 a0.350369 0.34164 0 0 1 -4.7462E-15
								 -0.589301 L11.64 83.7 a0.356039 0.347168 0 0 1 0.346968 5.68434E-14 L23.53 90.19 a0.345834 0.337217
								 0 0 1 0.17235 0.292992 a0.348101 0.339429 0 0 1 -0.17235 0.295203 L12.06 97.23 a0.343566 0.335006
								 0 0 1 -0.175752 0.0486478 Z" class="st2"/>
				</g>
				<g id="shape16151-7" transform="translate(16.168,-6.55404)">
					<title>Sheet.16151</title>
					<path d="M11.85 97.28 a0.331093 0.322844 0 0 1 -0.175752 -0.0453309 L0.18 90.76 a0.342432 0.333901 0 0 1 -0.176885
								 -0.295203 L0 77.48 a0.351503 0.342746 0 0 1 0.176885 -0.297415 a0.36511 0.356013 0 0 1 0.351503
								 1.42109E-14 L12.03 83.65 a0.362842 0.353802 0 0 1 0.170082 0.296309 L12.2 96.94 C12.2 97.06 12.13
								 97.17 12.03 97.23 a0.360574 0.351591 0 0 1 -0.174618 0.0453309 Z" class="st3"/>
				</g>
				<g id="shape16152-9" transform="translate(30.9277,-6.55404)">
					<title>Sheet.16152</title>
					<path d="M0.35 97.28 a0.357172 0.348274 0 0 1 -0.178019 -0.0453309 a0.350369 0.34164 0 0 1 -0.17235 -0.295203
								 L0 84.03 C0 83.91 0.07 83.8 0.17 83.74 L11.67 77.26 a0.351503 0.342746 0 0 1 0.523853 0.294098 L12.19
								 90.47 a0.346968 0.338323 0 0 1 -0.176885 0.295203 L0.52 97.23 a0.311817 0.304049 0 0 1 -0.170082
								 0.0453309 Z" class="st4"/>
				</g>
				<g id="shape16153-11">
					<title>Sheet.16153</title>
					<path d="M5.38 57.21 L5.38 94.58 A2.68957 2.62256 0 1 1 0 94.58 L0 46.26 L18.1 46.26 L24.83 52.82 L54.5 52.82
								 L54.5 57.21 L5.38 57.21 Z" class="st5"/>
				</g>
			</g>
		</g>
	</g>
</svg>
